kturtle-script-v1.0
@(reset)
@(go) 50@(,) 125

@(dir) 90
@(pc) 217@(,) 0@(,) 18
@(pw) 50
@(fw) 300
@(pu)
@(tr) 90
@(fw) 50
@(tr) 90
@(pc) 0@(,) 51@(,) 160
@(pd)
@(fw) 300
@(pu) 
@(tl) 90
@(fw) 50
@(tl) 90
@(pc) 242@(,) 168@(,) 0
@(pendown)
@(fw) 300
@(pu) 
@(tl) 180
@(go) 24@(,) 99
@(dir) 180
@(pc) 0@(,) 0@(,) 0
@(pd)
@(pw) 20
@(fw) 280
@(sh)


 


