kturtle-script-v1.0
@(reset)
@(pw) 5
@(cc) 204@(,) 102@(,) 0
@(pc) 0@(,)0@(,)204
@(go) 100@(,)380
@(repeat) 5{
@(fw) 200
@(tr) 90
}
@(tl) 60
@(fw) 200
@(tr) 120
@(fw) 200
@(dir) 180
@(pc) 255@(,)0@(,)0
@(repeat) 2{
@(fw) 50
@(tr) 90
}

@(fw) 50
@(tl) 90
@(fw) 100
@(tl) 90
@(fw) 50
@(tr) 90
@(fw) 50
@(tl) 90
@(fw) 150
@(tl) 90
@(fw) 65
@(tl) 90
@(fw) 100
@(tr) 90
@(fw) 70
@(tr) 90
@(fw) 100

 


 