kturtle-script-v1.0
@(reset)
@(cs) 500@(,) 500
@(go) 0@(,) 251
@(repeat) 360 {
@(fw) 4.3631
@(tr) 1
} 
@(pu)
@(dir) 90
@(fw) 150
@(tl) 90
@(fw) 150
@(pd) 
@(repeat) 360{
@(fw) 0.5
@(tr) 1
}
@(dir) 90 
@(pu)
@(fw) 150
@(dir) 0
@(pd) 
@(repeat) 360{
@(fw) 0.5
@(tr) 1
}
@(go) 80@(,) 250
@(dir) 180
@(pd)
@(repeat) 180 {
@(fw) 3
@(tl) 1
}
@(sh)


